X: 956
T: Güzellerde Ne
C: Tanburî Mustafa Çavuş
O: Turkey
F: http://compmusic.upf.edu/node/140
N: huzzam--sarki--aksak--guzellerde_ne--tanburi_mustafa_cavus
N: makam= huzzam
N: form= sarki
N: usul= aksak = 9/8
M: 9/8
L: 1/16
K: C _1/4B _3/4e ^3/4f 
Q: 1/4=120
%%MIDI tuningsystem comma53
G4 B2c2 d3c d4 _7/8e2 | dc B4 d3c B4 _7/8ede2  | \
w:   |   | 
z2z2 d_7/8e^f2 eddc cBc4 | 
w:   | 
d2 cBc3BA3Bc3Bc4B2 z2_7/8ed e2^f2 d4 B2 | \
w:   | 
c2 d2B2 g4 =f_1/4eed dcBA  | 
w:   | 
BcBA G4 B2c2 d3c d4 _7/8e2dc B4 d3c B4  | \
w:   | 
_7/8ede2 z2z2 de^f2 eddc cB | 
w:   | 
c4d2 cBc3BA3Bc3Bc4B2 z2_7/8ed e2^f2 d4 B2c2 d2B4z2 aggf  | 
w:   | 
^f^ef4z2 B4 f4 fg | ^f_7/8e defg a2g4c'2 _7/8baag  | 
w:   |   | 
g^ff^e fgfe f4 d3a ag2f gf_7/8ed c2z2 ede2 f2d4B2 c2d2 B2g4=f_1/4e ed | 
w:   | 
dc BABc BAG4z2 Bcd4_7/8e4dc c4 z2de ^f4 g4 fed4d2 a2ag  | 
w:   | 
g^fgf _7/8edc2 d3c f2ed dc | cB _7/8e4 dcc3BA2 B2c3Bc4B2 z2ed e2^f2 d4 B2c2 d2B8B4BA BcBA G4 z2Bc d4 e4 dcc4z2 def4g4fe d4 d2a2 ag | 
w:   |   | 
g^f gf_7/8ed c2d3cf2 eddc  | cB_7/8e4dc c3B A2B2 c3B c4 B2z2 ede2 ^f2d4B2 c2d2 B8 B4 z4 z2|
w:   |   | 


